material/.icons/material/vpn.svg

<svg xmlns="http://www.w3.org/2000/svg" viewBox="0 0 24 24"><path d="M9 5h6l-3 3-3-3m1.5 9.66c-.3.34-.5.84-.5 1.34a2 2 0 002 2 2 2 0 002-2c0-.55-.22-1.05-.59-1.41l1.42-1.42C15.55 13.9 16 14.9 16 16a4 4 0 01-4 4 4 4 0 01-4-4c0-1.07.42-2.04 1.1-2.75l-.01-.01 7.08-7.07A3.99 3.99 0 0119 5a4 4 0 014 4 4 4 0 01-4 4c-1.1 0-2.1-.45-2.83-1.17l1.42-1.42c.36.37.86.59 1.41.59a2 2 0 002-2 2 2 0 00-2-2c-.55 0-1.05.22-1.41.59l-7.09 7.07M6.41 7.59C6.05 7.22 5.55 7 5 7a2 2 0 00-2 2 2 2 0 002 2c.55 0 1.05-.22 1.41-.59l1.42 1.42C7.1 12.55 6.1 13 5 13a4 4 0 01-4-4 4 4 0 014-4c1.11 0 2.11.45 2.83 1.17l2.76 2.76-1.42 1.42-2.76-2.76z"/></svg>

<?xml version="1.0" encoding="UTF-8"?><!DOCTYPE svg PUBLIC "-//W3C//DTD SVG 1.1//EN" "http://www.w3.org/Graphics/SVG/1.1/DTD/svg11.dtd"><svg xmlns="http://www.w3.org/2000/svg" xmlns:xlink="http://www.w3.org/1999/xlink" version="1.1" id="mdi-vpn" width="24" height="24" viewBox="0 0 24 24"><path d="M9,5H15L12,8L9,5M10.5,14.66C10.2,15 10,15.5 10,16A2,2 0 0,0 12,18A2,2 0 0,0 14,16C14,15.45 13.78,14.95 13.41,14.59L14.83,13.17C15.55,13.9 16,14.9 16,16A4,4 0 0,1 12,20A4,4 0 0,1 8,16C8,14.93 8.42,13.96 9.1,13.25L9.09,13.24L16.17,6.17V6.17C16.89,5.45 17.89,5 19,5A4,4 0 0,1 23,9A4,4 0 0,1 19,13C17.9,13 16.9,12.55 16.17,11.83L17.59,10.41C17.95,10.78 18.45,11 19,11A2,2 0 0,0 21,9A2,2 0 0,0 19,7C18.45,7 17.95,7.22 17.59,7.59L10.5,14.66M6.41,7.59C6.05,7.22 5.55,7 5,7A2,2 0 0,0 3,9A2,2 0 0,0 5,11C5.55,11 6.05,10.78 6.41,10.41L7.83,11.83C7.1,12.55 6.1,13 5,13A4,4 0 0,1 1,9A4,4 0 0,1 5,5C6.11,5 7.11,5.45 7.83,6.17V6.17L10.59,8.93L9.17,10.35L6.41,7.59Z" /></svg>
